X: 22
T: Gas Lights
M: 6/8
L: 1/8
R: Jig
B: Goulding & Co. - Twenty Four Country Dances for the Year 1808 (London) p.11 #2
F: http://petrucci.mus.auth.gr/imglnks/usimg/7/7e/IMSLP351864-PMLP71783-goulding_24_dances_1808.pdf
Z: Transcribed and edited by Flynn Titford-Mock
Z: ABC's: AK/Fiddler's Companion
Z: Dance added 2015 by John Chambers  <jc:trillian.mit.edu>
K: D
% - - - - - - - - - - - - - - - - - - - - - - - - - - - - -
D |\
F2F FED | A2A AGF | BdB AFA | B3 d3 |\
F2F FED | A2A AGF | GBG FAF | E3 D2 :|!
|: A |\
d2e fdB | c2d ecA | dcB AFA | B3 d3 |\
F2F FED | A2A AGF | GBG FAF | E3 D2 :| 
% - - - - - - - - - - Dance description - - - - - - - - - -
%%begintext align
%% Set, hands 3 round & back again lead, down
%% the middle, up again, & Allemande.
%%endtext
